src/pos-icons/swap-vertical-circle.svg

<svg height="24" viewBox="0 0 24 24" width="24" xmlns="http://www.w3.org/2000/svg"><path d="m12 2c-5.5 0-10 4.5-10 10s4.5 10 10 10 10-4.5 10-10-4.5-10-10-10m-5.5 7 3.5-3.5 3.5 3.5h-2.5v4h-2v-4zm11 6-3.5 3.5-3.5-3.5h2.5v-4h2v4z"/></svg>

<?xml version="1.0" encoding="UTF-8"?><!DOCTYPE svg PUBLIC "-//W3C//DTD SVG 1.1//EN" "http://www.w3.org/Graphics/SVG/1.1/DTD/svg11.dtd"><svg xmlns="http://www.w3.org/2000/svg" xmlns:xlink="http://www.w3.org/1999/xlink" version="1.1" id="mdi-swap-vertical-circle" width="24" height="24" viewBox="0 0 24 24"><path d="M12 2C6.5 2 2 6.5 2 12S6.5 22 12 22 22 17.5 22 12 17.5 2 12 2M6.5 9L10 5.5L13.5 9H11V13H9V9H6.5M17.5 15L14 18.5L10.5 15H13V11H15V15H17.5Z" /></svg>
